X: 2196
T: Şu Kışlanın Kapısına
C: (Anonim)
O: Turkey
F: http://compmusic.upf.edu/node/140
N: ussak--turku--musemmen--su_kislanin--adana
N: makam= ussak
N: form= turku
N: usul= musemmen = 8/8
M: 8/8
L: 1/16
K: C _2/4B   
Q: 1/4=198
%%MIDI tuningsystem comma53
c4 d2d4d4c2  | d4 e2dc d2c4B2  | c4 d2cB c2B4A2  | \
w:  ARANAĞME  |   |   | 
B4 c2B2 A2A6  | 
w:   | 
c4 d2d4d4c2  | d4 e2dc d2c4B2  | c4 d2cB c2B4A2  | \
w:  ARANAĞME  |   |   | 
B4 c2B2 A2A6  | 
w:   | 
A2A2 e2e4e6  | e2f2 g2fg e2f2 e2d2  | \
w:  Şu  kış *  la nın   |  ka *  pı sı *  *  na    | 
e4 f2e2 d2de c4  | 
w:  Ma il  ol *  dum   | 
d4 e2dc d2c6  | d4 d2d4de c2z2  | d4 e2dc d2c4B2  | \
w:  ya pı sı *  *  na    |  Tel li  kur ban   |  bağ la ya *  *  yım    | 
c4 d2cB c2B4A2  | 
w:  Naz lı  yâ *  *  rin   | 
B4 c2B2 A2A6  | d2d4d4de c2z2  | d4 e2dc d2c4B2  | \
w:  ka pı sı *  na    |  Yü ce  dağ lar   |  ol ma say *  *  dı    | 
c4 d2cB c2B4A2  | 
w:  Lâ le le *  *  ri   | 
B4 c2B2 A2A6  | d2d4d4de c2z2  | d2e4dc d2c4B2  | \
w:  sol ma say *  dı    |  Ö lüm  Al la  |  hın_ em riy *  *  se    | 
c2d4cB c2B4A2  | 
w:  Şu  ay rı *  *  lık   | 
B4 c2B2 A2A6  | c4 d2d4d4c2  | d4 e2dc d2c4B2  | \
w:  ol ma say *  dı    |  ARANAĞME  |   | 
c4 d2cB c2B4A2  | 
w:   | 
B4 c2B2 A2A6  | c4 d2d4d4c2  | d4 e2dc d2c4B2  | \
w:   |  ARANAĞME  |   | 
c4 d2cB c2B4A2  | 
w:   | 
B4 c2B2 A2A6  | A2A2 e2e4e6  | e2f2 g2fg e2f2 e2d2  | \
w:   |  Şu  kış *  la nın   |  ka *  pı sı *  *  na    | 
e4 f2e2 d2de c4  | 
w:  Ma il  ol *  dum   | 
d4 e2dc d2c6  | d4 d2d4de c2z2  | d4 e2dc d2c4B2  | \
w:  ya pı sı *  *  na    |  Tel li  kur ban   |  bağ la ya *  *  yım    | 
c4 d2cB c2B4A2  | 
w:  Naz lı  yâ *  *  rin   | 
B4 c2B2 A2A6  | d2d4d4de c2z2  | d4 e2dc d2c4B2  | \
w:  ka pı sı *  na    |  Yü ce  dağ lar   |  ol ma say *  *  dı    | 
c4 d2cB c2B4A2  | 
w:  Lâ le le *  *  ri   | 
B4 c2B2 A2A6  | d2d4d4de c2z2  | d2e4dc d2c4B2  | \
w:  sol ma say *  dı    |  Ö lüm  Al la  |  hın_ em riy *  *  se    | 
c2d4cB c2B4A2  | 
w:  Şu  ay rı *  *  lık   | 
B4 c2B2 A2A6  | |


